!!!COM:	Bach, Johann Sebastian
!!!CDT:	1685/02/21/-1750/07/28/
!!!OTL@@DE:	Verleih uns Frieden gn&auml;diglich
!!!SCT:	BWV 42/7
!!!PC#:	91
!!!AGN:	chorale
**kern	**kern	**kern	**kern	**chordsymbol
*ICvox	*ICvox	*ICvox	*ICvox	*
*Ibass	*Itenor	*Ialto	*Isoprn	*
*I"Bass	*I"Tenor	*I"Alto	*I"Soprano	*
*clefF4	*clefGv2	*clefG2	*clefG2	*
*k[f#c#g#]	*k[f#c#g#]	*k[f#c#g#]	*k[f#c#g#]	*
*f#:	*f#:	*f#:	*f#:	*f#:
*M4/4	*M4/4	*M4/4	*M4/4	*M4/4
*met(c)	*met(c)	*met(c)	*met(c)	*met(c)
*MM100	*MM100	*MM100	*MM100	*MM100
8F#L	4A	4c#	4f#	F#mm
8EJ	.	.	.	F#mm
=1	=1	=1	=1	=1
4D	4A	4d	4f#	DM
8C#L	4A	4d	4f#	DMM
8BBJ	.	.	.	Bmm
4C#	8G#L	[2c#	4e#	C#Mm
.	8BJ	.	.	C#Mm
8D#L	8AL	.	8f#L	D#dm
8E#J	8G#J	.	8g#J	E#m(?5)
=2	=2	=2	=2	=2
8F#L	4F#	8c#L]	4a	F#m
8BBJ	.	8f#J	.	B(?m)
4C#	8c#L	8f#L	4g#	C#Mm
.	8BJ	8e#J	.	C#Mm
4FF#;	4A;	4c#;	4f#;	F#m
4F#	4c#	4f#	4a	F#m
=3	=3	=3	=3	=3
4G#	4B	8enXL	4b	EM
.	.	8f#J	.	EM
8F#L	4e	4g#	4b	EM
8EJ	.	.	.	EM
8AL	4.e	[2a	8cc#L	AMM
8G#J	.	.	8bJ	AMM
8F#L	.	.	4a	F#mm
8EJ	16dLL	.	.	F#mm
.	16c#JJ	.	.	F#mm
=4	=4	=4	=4	=4
4D	4B	8aL]	2b	B(mm)
.	.	16g#L	.	EMm
.	.	16f#JJ	.	EMm
4E	4e	4g#	.	EMm
4AA;	4e;	4a;	4cc#;	AM
8AL	4e	4a	4cc#	AMM
8G#J	.	.	.	AMM
=5	=5	=5	=5	=5
4F#	8eL	4a	4cc#	F#mm
.	8dJ	.	.	DMM
8G#L	4d	8e#L	4b	E#dd
8F#J	.	8f#J	.	Bm
4E#	4c#	4g#	8cc#L	C#Mm
.	.	.	8bJ	C#Mm
8F#L	4c#	4f#	4a	F#mm
8EJ	.	.	.	F#mm
=6	=6	=6	=6	=6
4D#	4B	4f#	8bL	BMm
.	.	.	8aJ	BMm
4E	4B	4enX	4g#	EM
4BB;	4B;	4d#;	4f#;	BM
4B	4B	8d#L	8f#L	BM
.	.	8e#J	8g#J	E#d
=7	=7	=7	=7	=7
8F#L	4c#	4f#	4a	F#mm
8EJ	.	.	.	F#mm
8DL	4d	4f#	4a	DMM
8C#J	.	.	.	DMM
4BB	4d	8g#L	4b	G#dm
.	.	8f#J	.	G#dm
4C#	8c#L	4e#	8aL	C#Mm
.	8BJ	.	8g#J	C#Mm
=8	=8	=8	=8	=8
4D	8AL	8f#L	2f#	DM
.	8A#J	8enXJ	.	DM
8C#L	4B	4d	.	Bm
8BBJ	.	.	.	Bm
4F#;	4A;	4c#;	4f#;	F#m
4E	4G#	4e	4b	EM
=9	=9	=9	=9	=9
4A	4A	4e	4cc#	AM
8G#L	8BL	4e	4b	EM
8AJ	8c#J	.	.	C#(mm)
4B	4d	8dL	8f#L	Bm
.	.	8eJ	8g#J	EMm
8AL	4c#	4f#	4a	F#m
8BJ	.	.	.	F#m
=10	=10	=10	=10	=10
4c#	4.c#	4f#	8g#L	F#(P5)
.	.	.	8f#J	F#(P5)
4C#	.	4e#	4g#	C#Mm
.	8B	.	.	C#Mm
4F#;	4A;	4c#;	4f#;	F#m
8FF#L	4A	4c#	4f#	F#m
8GG#J	.	.	.	F#m
=11	=11	=11	=11	=11
8AAL	4A	4c#	4f#	F#m
8BBJ	.	.	.	F#m
[4C#	4G#	4enX	4enX	C#m
8C#L]	4F#	4d	4a	DM
8DJ	.	.	.	DM
8C#L	4G#	4d	4b	G#d
8BBJ	.	.	.	G#d
=12	=12	=12	=12	=12
8AAL	8AL	4c#	8cc#L	AM(?5)
8E#J	8G#J	.	8bJ	E#d
8F#L	4A	4c#	4a	F#m
8C#J	.	.	.	F#m
8DL	4A	4f#	4b	Bmm
8BBJ	.	.	.	Bmm
4E	4G#	4e	4b	EM
=13	=13	=13	=13	=13
2AA;	2A;	2e;	2cc#;	AM
2BB	2G#	2b	2dd	G#d
=14	=14	=14	=14	=14
4C#	4A	4e	4cc#	AM
4D	4A	4f#	8bL	Bm
.	.	.	16cc#L	Bm
.	.	.	16ddJJ	Bm
4E	8AL	4e	4.b	EMm
.	8F#J	.	.	EMm
4EE	8G#L	4e	.	EMm
.	8dJ	.	8a	EMm
=15	=15	=15	=15	=15
2.AA;	2.c#;	2.e;	2.a;	AM
4E#	4c#	4g#	4cc#	C#M
=16	=16	=16	=16	=16
4.F#	4.f#	8aL	8cc#L	F#m
.	.	8g#J	8bJ	G#(mm)
.	.	4f#	4a	F#(mm)
8F#	8e	.	.	F#(mm)
8G#L	8dL	4f#	8bL	Bm
8A#J	8c#J	.	8cc#J	A#m(?5)
4B	8BL	8f#L	4dd	Bm
.	8G#J	8e#J	.	E#dd
=17	=17	=17	=17	=17
2F#;	2AnX;	2f#;	2cc#;	F#m
4EnX	4B	8g#L	4eenX	EM
.	.	8bJ	.	EM
4E	4e	8bL	4cc#	C#(mm)
.	.	8aJ	.	C#(mm)
=18	=18	=18	=18	=18
[1E	4e	8aL	4dd	E(Mm)
.	.	8g#J	.	E(Mm)
.	8eL	8aL	8cc#L	AM
.	8dJ	8g#J	8bJ	EMm
.	8c#L	8aL	4cc#	AM
.	8BJ	8bJ	.	E(P5)
.	8AL	4cc#	4cc#	AMM
.	8G#J	.	.	AMM
=19	=19	=19	=19	=19
4E]	8F#L	8cc#L	4dd	EMm
.	8G#J	8bJ	.	EMm
4F#	4A	4a	8cc#L	F#m
.	.	.	8ddJ	DM
4G#	4B	4e	8eeL	EMm
.	.	.	8ddJ	EMm
4A	4A	4e	4cc#	AM
=20	=20	=20	=20	=20
4D	4A	4f#	2b	Bmm
4E	4G#	8eL	.	EMm
.	.	8dJ	.	EMm
2AA;	2E;	2c#;	2a;	AM
=21	=21	=21	=21	=21
8AAL	4A	4e	4cc#	AM
8BBJ	.	.	.	AM
8C#L	4A	4e	4cc#	AM
8AAJ	.	.	.	AM
8DL	4A	4f#	4a	DM
8C#J	.	.	.	DM
8DL	4d	4f#	4b	Bm
8EJ	.	.	.	Bm
=22	=22	=22	=22	=22
4F#	4c#	4f#	4a	F#m
8G#L	4B	4e	4g#	EM
8AJ	.	.	.	EM
2B;	2B;	4e	2f#;	Bm
.	.	4d;	.	Bm
=23	=23	=23	=23	=23
4.C#	4G#	4c#	4e	C#m
.	8AL	4d	8f#L	DMM
8BB	8BJ	.	8g#J	G#d
4AA	4c#	4e	4a	AM
8BBL	4B	4d	4f#	Bm
8C#J	.	.	.	Bm
=24	=24	=24	=24	=24
2.D;	2.A;	2.d;	2.f#;	DM
4AA	8AL	4c#	4e	AMM
.	8G#J	.	.	AMM
=25	=25	=25	=25	=25
8AAL	4F#	2.c#	4f#	F#m
8GG#J	.	.	.	F#m
8FF#L	4B	.	4g#	C#Mm
8EE#J	.	.	.	C#Mm
8FF#L	4A	.	4a	F#m
8F#J	.	.	.	F#m
8BBL	4B	8dL	4g#	G#d
8C#J	.	8enXJ	.	C#mm
=26	=26	=26	=26	=26
8DL	4A	4f#	2.f#	DMM
8C#J	.	.	.	DMM
8BBL	8G#L	8g#L	.	G#(mm)
8AAJ	8F#J	8aJ	.	F#m(?5)
4BB	8G#L	4d	.	G#dm
.	8AJ	.	.	G#dm
4C#	4B	4c#	4e#	C#(Mm)
=27	=27	=27	=27	=27
2.FF#;	2.A#;	2.c#;	2.f#;	F#M
==	==	==	==	==
*-	*-	*-	*-	*-
!!!hum2abc: -Q ''
!!!title: @{PC#}. @{OTL@@DE}
!!!YOR1: 371 vierstimmige Choralges&auml;nge von Johann Sebastian Bach, 
!!!YOR2: 4th ed. by Alfred D&ouml;rffel (Leipzig: Breitkopf und H&auml;rtel, 
!!!YOR2: c.1875). 178 pp. Plate "V.A.10".  reprint: J.S. Bach, 371 Four-Part 
!!!YOR4: Chorales (New York: Associated Music Publishers, Inc., c.1940).
!!!SMS: B&H, 4th ed, Alfred D&ouml;rffel, c.1875, plate V.A.10
!!!EED:  Craig Stuart Sapp
!!!EEV:  2009/05/22
!!! **chordsymbol annotations generated by the FlexibleChoraleHarmonicAnalysis package.
!!! Condit-Schultz, Ju, and Fujinaga, ISMIR (2018)
!!! Created on Sat Mar 02 11:23:32 2019
